src/lib/packages/icons/src/assets/filled/money-bills.svg

<svg width="24" height="24" viewBox="0 0 24 24" fill="none" xmlns="http://www.w3.org/2000/svg">
<path d="M21 10.5V17.5C21 19.17 20.17 20 18.5 20H8.5C7.16 20 6.35999 19.47 6.10999 18.39C6.36999 18.47 6.67 18.5 7 18.5H17C18.67 18.5 19.5 17.67 19.5 16V9C19.5 8.67 19.47 8.36999 19.39 8.10999C20.47 8.35999 21 9.16 21 10.5ZM18 7.5V14.5C18 16.167 17.167 17 15.5 17H5.5C3.833 17 3 16.167 3 14.5V7.5C3 5.833 3.833 5 5.5 5H15.5C17.167 5 18 5.833 18 7.5ZM6.5 10.999C6.5 10.447 6.052 9.99902 5.5 9.99902C4.948 9.99902 4.5 10.447 4.5 10.999C4.5 11.551 4.948 11.999 5.5 11.999C6.052 11.999 6.5 11.552 6.5 10.999ZM13 11C13 9.619 11.881 8.5 10.5 8.5C9.119 8.5 8 9.619 8 11C8 12.381 9.119 13.5 10.5 13.5C11.881 13.5 13 12.381 13 11ZM16.5 10.999C16.5 10.447 16.052 9.99902 15.5 9.99902C14.948 9.99902 14.5 10.447 14.5 10.999C14.5 11.551 14.948 11.999 15.5 11.999C16.052 11.999 16.5 11.552 16.5 10.999Z" fill="currentColor"/>
</svg>

<svg xmlns="http://www.w3.org/2000/svg" width="24" height="24" fill="none"><path fill="currentColor" d="M21 10.5v7c0 1.67-.83 2.5-2.5 2.5h-10c-1.34 0-2.14-.53-2.39-1.61.26.08.56.11.89.11h10c1.67 0 2.5-.83 2.5-2.5V9c0-.33-.03-.63-.11-.89C20.47 8.36 21 9.16 21 10.5Zm-3-3v7c0 1.667-.833 2.5-2.5 2.5h-10C3.833 17 3 16.167 3 14.5v-7C3 5.833 3.833 5 5.5 5h10c1.667 0 2.5.833 2.5 2.5ZM6.5 10.999a1 1 0 1 0-2 0 1 1 0 0 0 2 0ZM13 11a2.5 2.5 0 1 0-5 0 2.5 2.5 0 0 0 5 0Zm3.5-.001a1 1 0 1 0-2 0 1 1 0 0 0 2 0Z"/></svg>
